documentation/public/assets/images/icon.svg

<svg width="32" height="32" viewBox="0 0 32 32" fill="none" xmlns="http://www.w3.org/2000/svg">
<path d="M29.669 26.67H2.99902C2.44902 26.67 1.99902 26.22 1.99902 25.67V7C1.99902 6.45 2.44902 6 2.99902 6H29.669C30.219 6 30.669 6.45 30.669 7V25.67C30.669 26.22 30.219 26.67 29.669 26.67ZM3.99902 24.67H28.669V8H3.99902V24.67Z" fill="#0F67F5"/>
<path d="M16.3287 19.9997C16.0887 19.9997 15.8487 19.9097 15.6587 19.7397L2.3287 7.73968C1.9187 7.36968 1.8887 6.73968 2.2587 6.32968C2.6287 5.91968 3.2587 5.88968 3.6687 6.25968L16.3287 17.6597L28.9987 6.25968C29.4087 5.88968 30.0387 5.91968 30.4087 6.32968C30.7787 6.73968 30.7487 7.36968 30.3387 7.73968L17.0087 19.7397C16.8187 19.9097 16.5787 19.9997 16.3387 19.9997H16.3287Z" fill="#0F67F5"/>
<path d="M2.99902 26.67C2.76902 26.67 2.52935 26.5899 2.33935 26.4199C1.91935 26.0599 1.87935 25.4199 2.24935 25.0099L11.3493 14.6099C11.7093 14.1899 12.3493 14.1499 12.7593 14.5199C13.1793 14.8799 13.2193 15.5199 12.8493 15.9299L3.74935 26.3299C3.54935 26.5599 3.27902 26.67 2.99902 26.67Z" fill="#0F67F5"/>
<path d="M29.669 26.67C29.389 26.67 29.1085 26.5499 28.9185 26.3299L19.7985 15.8999C19.4385 15.4799 19.4785 14.8499 19.8885 14.4899C20.3085 14.1299 20.9385 14.1699 21.2985 14.5799L30.4185 25.0099C30.7785 25.4299 30.7385 26.0599 30.3285 26.4199C30.1385 26.5899 29.909 26.67 29.669 26.67Z" fill="#0F67F5"/>
</svg>

<svg width="32" height="32" fill="none" xmlns="http://www.w3.org/2000/svg"><path d="M29.67 26.67H3a1 1 0 0 1-1-1V7a1 1 0 0 1 1-1h26.67a1 1 0 0 1 1 1v18.67a1 1 0 0 1-1 1ZM4 24.67h24.67V8H4v16.67Z" fill="#0F67F5"/><path d="M16.33 20a1 1 0 0 1-.67-.26l-13.33-12a1 1 0 1 1 1.34-1.48l12.66 11.4L29 6.26a1 1 0 1 1 1.34 1.48L17 19.74a1 1 0 0 1-.67.26h-.01Z" fill="#0F67F5"/><path d="M3 26.67a.99.99 0 0 1-.66-.25.99.99 0 0 1-.1-1.41l9.1-10.4a.99.99 0 0 1 1.42-.09c.42.36.46 1 .09 1.41l-9.1 10.4a.98.98 0 0 1-.75.34Zm26.67 0a1 1 0 0 1-.75-.34L19.8 15.9a1 1 0 0 1 .09-1.41 1 1 0 0 1 1.4.09l9.13 10.43a1 1 0 0 1-.1 1.41.97.97 0 0 1-.65.25Z" fill="#0F67F5"/></svg>
